X:1
T:Ch vuoi piu
T:Ch vuoi piu
T:Bartolomeo Spighi da Prato
C:Bartolomeo Spighi da Prato
%%score [ 1 2 3 ] { ( 4 6 ) | 5 }
L:1/8
Q:1/4=120
M:4/4
K:C
V:1 treble-8 nm="Tenor 1" snm="T 1"
V:2 treble-8 nm="Tenor 2" snm="T 2"
V:3 bass nm="Bass" snm="B"
V:4 treble nm="MusicXML Part"
V:6 treble 
V:5 bass 
V:1
"^Source: Musical Concerto d'arie e Canzonette---Fiorenza---Z.Pignoni---1641.\nEditor: André Vierendeels (14/12/08)\nContinuo: André Vierendeels" z2 z B eg g2-"^Che vuoi piu""^CANZONETTA" | %1
w: Che voi piu tu|
w: For- se ve- der|
w: Al- lor ch'io vi|
 g2 ^f2 gdBB | A4 G4 | z cBB A4 | BBAd c2 c2 | B4 z agg | f4 e4 | z Adc A4 |[M:2/4] G4 :: z4 | %10
w: _ da me Lil- la cru-|de- le,|Lil- la cru- de-|le che voi tu piu da|me Lil- la cru-|de- le|Lil- la cru- de-|le.||
w: _ vuoi tu ar- der il|co- re|ar- der il co-|re, For- e ve- der vuoi|tu ar- der il|co- re|ar- der il co-|re.||
w: _ mi- rai Lil- l'a- mo-|ro- sa|Lil- l'a- mo- ro-|sa, Al- lor ch'io vi mi-|rai- Lil- l'a- mo-|ro- sa|Lil- l'a- mo- ro-|sa||
[M:4/4] z2 gf e2 ag | fe/f/ de/f/ g2 e2 | z2 fe dc/d/ BA/B/ | ccdc B4 | B2 z2 z4 | z Bcd e4 | %16
w: Io con pre s'e fe-|ri- * * * * * * to-|e fe ri- * * * * *|* t'e qua- s'es- tin-|to|un ch'e gia vin-|
w: Lo co- fir- ma la-|fiam- * * * * * * ma|la- * fiam- * * * * *|* m'a po- c'a po-|co|e ch'e ve- der|
w: Et hor per mio- des-|tin- * * * * * * m'ha-|mio des- tin _ _ _ _ _|_ m'ha- ve- te mor-|to|m'ha- ve- te mor-|
 dGAB A2 A2 | Gcde ^d4 | e4 d4- | d2 dg g2 ^f2 | g8 :| %21
w: to ah' che piu tor- men-|tar, un ch'e gia vin-|to, un|_ ch'e gia vin- *|to.|
w: vuoi piu s'e- gl'e nel fo-|co,- e che ve- der|vuoi s'e-|* gl'e nel fo- *|co.|
w: to, et hor per mio des-|tin m'ha- ve- te mor-|to, m'ha-|* ve- te mor- *|to.|
V:2
 z8 | z8 | z4 z2 z B | ce e4 ^d2 | eecB A4 | G2 z G Ac c2- | c2 B2 ccAG | ^F2 G4 F2 |[M:2/4] G4 :: %9
w: ||Che|voi piu tu da|me Lil- la cru- de-|la che- voi piu tu|_ da me Lil- la cru-|de- * *|le.|
w: ||For-|se ve- der vuoi|tu ar- der il co-|re, for e ve- der|_ vuoi tu r- der il|co- * *|re.|
w: ||Al-|lor ch'io vi mi-|rai- Lil- l'a- mo- ro-|sa Lil- l'a- mo- ro-|* * sa Lil- l'- mo-|ro- * *|sa|
 z2 dc |[M:4/4] B2 ed cB/c/ AB/c/ | d2 B2 z2 cB | A2 dc BA/B/ GF/G/ | AABA ^G4 | %14
w: Io son|pre- s'e fe- ri- * * * * *|* to io son|pre- s'e fe- ri- * * * * *|* t'e qua- s'es- tin-|
w: Lo con-|fir- mar la fiam- * * * * *|* ma lo con-|fir- mar la fiam- * * * * *|* m'a po- c'a po-|
w: Et hor|per mio des- tin- _ _ _ _ _|_ _ et hor|per mio des- tin _ _ _ _ _|_ m'ha- ve- te mor-|
 ^G"^-natural"GAB A2 A2 | G4 z4 | z edd c4 | BGFE ^F2 F2 | E2 B4 AB | A8 | G8 :| %21
w: to, ahi, che piu tor- men-|tar|un ch'e gia vin-|to, ah' che piu tor- men-|tar, un che gia|vin-|to.|
w: co, e ch'e ve- der vuoi|piu|e che ve- der|voi- piu, e che ve- der|vuoi s'e- gl'e nel|fo-|co.|
w: to, et hor per mio des-|tin|m'ha- ve- te mor-|to,- et hor per mio des-|tn m'ha- ve- te|mor-|to.|
V:3
 z8 | z2 z D, E,-G, G,2- | G,2 ^F,2 G,4 | z A,G,G, F,4 | E,E,F,G, G,2 ^F,2 | %5
w: |Che voi piu tu|_ da me|Lil- la cru- de-|le, che voi tu piu da|
w: |For- se ve- der|_ vuoi tu|ar- der il co-|re, for- se ve- der vuoi|
w: |Al- lor ch'io vi|_ mi- rai|Lil- l'a- mo- ro-|sa, al- lor ch'io vi mi-|
 G,4 z"^-natural" F,E,E, | D,4 C,4 | z D,B,,C, D,4 |[M:2/4] G,,4 :: z4 |[M:4/4] z8 | %11
w: me Ll- la cru-|de- le|Lil- la cru- de-|le|||
w: tu ar- der il|co- re|ar- der l co-|re|||
w: rai Lil- l'a- mo-|ro- a|Lil- l'a- mo- ro-|sa.|||
 z2 G,F, E,2 A,G, | F,E,/F,/ D,E,/F,/ G,2 z D, | A,,2 D,2 E,4 | E,2 z2 z4 | z G,,A,,B,, C,4 | %16
w: Io son pre- s'e fe-|ri- * * * * * to e|qua- s'es- tin-|to|un ch'e gia vin-|
w: lo con- fir- ma la|fiam- * * * * * ma m'a|po- c'a po-|co|e ch'e ve- der|
w: Et hor per mi des-|tin _ _ _ _ _ _ m'h-|ve- te mor-|to|m'ha- ve- te mor-|
 B,,E,^F,G, G,2 F,2 | G,E,D,C, B,,4 | E,4 G,4- | G,2 ^F,G, D,4 | G,,8 :| %21
w: to, ah' che piu tor- men-|tar, un ch'e gia vin-|to, un|_ ch'e gia vin-|to.|
w: vuoi piu s'e- gl'e nel fo-|co, e che ve- der|vuoi s'e-|* gl'e nel fo-|co.|
w: to, m'ha- ve- te mor- to,|et hor per mio des-|tin, m'ha-|* ve- te mor-|to.|
V:4
 [DGB]4 [EG]4 | [DA]4 [GB]4 | [DA]4 [DB]4 | [Ac]2 [GB]2 A4 | [EB]2 [FA]2 [DA]4 | %5
 [DB]4 [FA]2 [Gc]2 | [Fd]4 [Gc]4 | [^FA]2 [DG]2 [DA]4 |[M:2/4] [DGB]4 :: [DG]4 | %10
[M:4/4] [DGB]2 [Gc]2 [Ec]2 [FA]2 | [DA]2 [DB]2 [Ec]2 [Fc]2 | [FA]2 [DA]2 [DB]2 [FA]2 | %13
 [EA]2 [FA]2 [EB]4 | [^GB]2 [EG]2 [Ec]4 | [DB]4 [EG]4 | D8 | D4 ^D4 | E4 D4 | D8 | D8 :| %21
V:5
 G,4 C2 B,2 | D2 D,2 E,G, G,2 | G,2 ^F,2 G,4 | z A,G,G, F,4 | E,E,F,G, G,2 ^F,2 | G,4 z F,E,E, | %6
 D,4 C,4 | z D,B,,C, D,4 |[M:2/4] G,,4 :: z2 DC |[M:4/4] B,2 E,2 A,2 F,2 | D,2 G,F, E,2 A,G, | %12
 F,E,/F,/ D,E,/F,/ G,2 z D, | A,,2 D,2 E,4 | E,2 z2 z4 | G,G,,A,,B,, C,4 | %16
 B,,E,^F,G, G,2"^Notes: original keys: Ut 3rd, Ut 4rth, Fa 4rth\n            editorial accidentals above the staff" F,2 | %17
 G,E,D,C, B,,4 | E,4 G,4- | G,2 ^F,G, F,4 | G,,8 :| %21
V:6
 x8 | x8 | x8 | x8 | x8 | x8 | x8 | x8 |[M:2/4] x4 :: x4 |[M:4/4] x8 | x8 | x8 | x8 | x8 | x8 | %16
 G2 A2 ABcA | G2 B2 BAG^F | G8 | A4 ABcd | [GB]8 :| %21

